X:1
T: John Steven of Chance Inn
C:
R:Strathspey
Q: 128
K:F
M:4/4
L:1/16
|:C2|F4 F3G A3B cA3|f3e d3c A3B cA3|d3c B3d c3A F3A|GG3 g3f ((3e2d2c2) ((3B2A2G2) |
F4 F3G A3B cA3|f3e d3c A3B cA3|d3c B3d c3A F3f|((3e2d2c2) ((3B2A2G2) F4 F2:|
|:g2|a3g f3a g3e c3e|f3e d3f ea3 A4|d3c B3d c3A F3A|GG3 g3f e3d ec3|
a3g f3a g3e c3e|f3e d3f ea3 A4|d3c B3d c3A F3f|((3e2d2c2) ((3B2A2G2) F4 F2:|
